app/dist/common/images/bluerock-homes-trust.svg

<svg height="18" viewBox="0 0 18 18" width="18" xmlns="http://www.w3.org/2000/svg"><path d="m0 0h18v18h-18z" fill="#f0f3fa"/><path d="m13 5h-8v8h8zm-9-1v10h10v-10z" fill="#022f56" fill-rule="evenodd"/><path d="m6 6h2.7v2.7h-2.7z" fill="#7aafd7"/><path d="m9.3 6h2.7v2.7h-2.7zm-3.3 3.3h2.7v2.7h-2.7z" fill="#022f56"/><path d="m9.3 9.3h2.7v2.7h-2.7z" fill="#7aafd7"/></svg>

<!-- by TradingView --><svg width="18" height="18" viewBox="0 0 18 18" xmlns="http://www.w3.org/2000/svg"><path fill="#F0F3FA" d="M0 0h18v18H0z"/><path fill-rule="evenodd" d="M13 5H5v8h8V5ZM4 4v10h10V4H4Z" fill="#022F56"/><path d="M6 6h2.7v2.7H6V6Z" fill="#7AAFD7"/><path d="M9.3 6H12v2.7H9.3V6ZM6 9.3h2.7V12H6V9.3Z" fill="#022F56"/><path d="M9.3 9.3H12V12H9.3V9.3Z" fill="#7AAFD7"/></svg>
